icons/arrow-crash-right.svg

<svg width="24" height="25" viewBox="0 0 24 25" fill="none" xmlns="http://www.w3.org/2000/svg">
<path fill-rule="evenodd" clip-rule="evenodd" d="M17.7461 12.5C17.7461 12.9142 17.4103 13.25 16.9961 13.25L6.99609 13.25C6.58188 13.25 6.24609 12.9142 6.24609 12.5C6.24609 12.0858 6.58188 11.75 6.99609 11.75L16.9961 11.75C17.4103 11.75 17.7461 12.0858 17.7461 12.5Z" fill="black"/>
<path fill-rule="evenodd" clip-rule="evenodd" d="M16.2468 12.4309L12.4534 8.7373C12.1566 8.44834 12.1502 7.97351 12.4392 7.67674C12.7282 7.37997 13.203 7.37364 13.4998 7.6626L17.3069 11.3696C17.8998 11.9625 17.8998 12.9374 17.3069 13.5303L17.2998 13.5374L13.4998 17.2373C13.203 17.5263 12.7282 17.5199 12.4392 17.2232C12.1502 16.9264 12.1566 16.4516 12.4534 16.1626L16.2468 12.469C16.2481 12.4673 16.2516 12.4618 16.2516 12.45C16.2516 12.4382 16.2481 12.4326 16.2468 12.4309Z" fill="black"/>
<path fill-rule="evenodd" clip-rule="evenodd" d="M17.0039 5.75C17.4181 5.75 17.7539 6.08579 17.7539 6.5L17.7539 18.5C17.7539 18.9142 17.4181 19.25 17.0039 19.25C16.5897 19.25 16.2539 18.9142 16.2539 18.5L16.2539 6.5C16.2539 6.08579 16.5897 5.75 17.0039 5.75Z" fill="black"/>
</svg>

<svg xmlns="http://www.w3.org/2000/svg" fill="none" viewBox="0 0 24 25">
  <path fill="#000" fill-rule="evenodd" d="M17.746 12.5a.75.75 0 0 1-.75.75h-10a.75.75 0 0 1 0-1.5h10a.75.75 0 0 1 .75.75Z" clip-rule="evenodd"/>
  <path fill="#000" fill-rule="evenodd" d="m16.247 12.43-3.794-3.693A.75.75 0 1 1 13.5 7.663l3.807 3.707a1.535 1.535 0 0 1 0 2.16l-.007.007-3.8 3.7a.75.75 0 0 1-1.047-1.074l3.794-3.694c.001-.002.005-.007.005-.019s-.004-.017-.005-.02Z" clip-rule="evenodd"/>
  <path fill="#000" fill-rule="evenodd" d="M17.004 5.75a.75.75 0 0 1 .75.75v12a.75.75 0 0 1-1.5 0v-12a.75.75 0 0 1 .75-.75Z" clip-rule="evenodd"/>
</svg>
